!!!!SEGMENT: pl-wtm--r-1227--014_lodwigowski-edward-stefan--kiedy-okropna-cichosc-panuje.krn
!!!cenid: 18xx:1954
!!!COM: Łodwigowski, Edward Stefan
!!!COM-rismID: pe30111147
!!!CDT: 1815/08/14-1895/11/12
!!!CNT: Polish
!!!OTL: Kiedy okropna cichość panuje
!!!PDT:
!!!AGN:
!!!SMS-siglum: PL-Wtm
!!!SMS-shelfmark: R 1227
!!!SMS-shelfwork: 014 W
!!!SMS-variant:
!!!SMS-altvar:
!!!NIFC-rismSourceID: 1001084114
!!!NIFC-islandoraID:
!!!URL-pdf-islandora:
!!!URL-scan:
!!!ONB-nifc: UWAGA: No. 86
!!!OMD: Andante
!!!AIN: 1 forte
!!!key:
**kern	**fing	**kern	**fing	**dynam
*part1	*part1	*part1	*part1	*part1
*staff2	*staff2	*staff1	*staff1	*
*Iforte	*	*Iforte	*	*
*I"Fortepian	*	*I"Fortepian	*	*
*clefF4	*	*clefG2	*	*
*k[]	*	*k[]	*	*
*a:	*	*a:	*	*
*M2/4	*	*M2/4	*	*
*all\right	*	*all\right	*	*
=1	=1	=1	=1	=1
*^	*^	*	*	*
!	!	!	!	!LO:TX:a:Bi:t=No 86.	!	!
!	!	!	!	!LO:TX:a:i:t=Kiedy okropna cichość panuje P. L P.	!	!
8C/L	4AA\	4	5	(4a\	1	p
8E/	.	.	.	.	.	.
8A/	4r	.	.	8.cc\L	3	.
8E/J	.	.	.	.	.	.
.	.	.	.	16ee\Jk)	.	.
*	*	*v	*v	*	*	*
=2	=2	=2	=2	=2	=2
8C/L	4AA\	.	(4.ee\	.	.
8E/	.	.	.	.	.
8A/	4r	.	.	.	.
8E/J	.	.	8dd\)	.	.
=3	=3	=3	=3	=3	=3
8C/L	4AA\	.	(8.cc\L	.	.
8E/	.	.	.	.	.
.	.	.	16b\Jk	.	.
8A/	4r	.	16dd\LL	.	.
.	.	.	16cc\	.	.
8E/J	.	.	16b\	.	.
.	.	.	16a\JJ)	.	.
=4	=4	=4	=4	=4	=4
*	*2\right	*	*	*	*
8D/L	2BB\	.	(8.a/L	3	.
8E/	.	.	.	.	.
.	.	.	16g#X/Jk)	2	.
8F/	.	.	4g#/	.	.
8E/J	.	.	.	.	.
!!LO:LB:g=original
=5	=5	=5	=5	=5	=5
.	.	.	(8qg/	1	.
8E/L	4C\	.	4cc\)	2	.
8G/	.	.	.	.	.
!	!	!	!	!	!LO:HP:t=cres
.	.	.	.	.	<
8c/	4r	.	8.eeL 8.cc\	2 4	.
8G/J	.	.	.	.	.
.	.	.	16ggJk 16ee\	4 5	.
=6	=6	=6	=6	=6	=6
8E/L	4C\	.	4.gg 4.ee\	.	.
8G/	.	.	.	.	.
8c/	4r	.	.	.	.
8G/J	.	.	8ee 8cc\	2 4	.
=7	=7	=7	=7	=7	=7
!LO:N:vis=2	!	!	!	!	!LO:DY:rj
*	*	*below	*	*	*
8F/L	2F\	4	4dd#X 4a^^\	3	f
!	!	!	!LO:TX:b:i:t=ralentando	!	!
8A/	.	2	.	.	.
8B/	.	.	4dd# 4a^^\	4	.
8A/J	.	.	.	.	.
*v	*v	*	*	*	*
=8	=8	=8	=8	=8
*	*	*2\right	*	*
2B 2E;\	.	2ee 2g#X;\	2 5	sf
=9	=9	=9	=9	=9
*^	*	*	*	*
!	!	!	!LO:TX:a:i:t=a tempo	!	!LO:DY:rj
8C/L	4AA\	.	(4a/	1	p
8E/	.	.	.	.	.
8A/	4r	.	8.cc\L	3	.
8E/J	.	.	.	.	.
.	.	.	16ee\Jk)	.	.
=10	=10	=10	=10	=10	=10
8C/L	4AA\	.	(4..ee\	.	.
8E/	.	.	.	.	.
8A/	4r	.	.	.	.
8E/J	.	.	.	.	.
.	.	.	16dd\)	.	.
!!LO:LB:g=original
=11	=11	=11	=11	=11	=11
8C/L	4AA\	.	(8.cc\L	.	.
8E/	.	.	.	.	.
.	.	.	16b\Jk	.	.
8A/	4r	.	16dd\LL	.	.
.	.	.	16cc\	.	.
8E/J	.	.	16b\	.	.
.	.	.	16a\JJ)	.	.
=12	=12	=12	=12	=12	=12
8D/L	2BB\	.	(8.a/L	3	.
8E/	.	.	.	.	.
.	.	.	16g#X/Jk)	.	.
8F/	.	.	4g#/	.	.
8E/J	.	.	.	.	.
=13	=13	=13	=13	=13	=13
!LO:N:vis=2	!	!	!	!	!
8D\L	2D/	5	(8.ff\L	5	sf
*	*	*above	*	*	*
8F\	.	3	.	.	.
.	.	.	16dd\Jk)	3	.
8G#X\	.	2	8dd\L	4	.
8B\J	.	1	8dd\J	.	.
=14	=14	=14	=14	=14	=14
!LO:N:vis=2	!	!	!	!	!
*	*	*below	*	*	*
8C\L	2C/	5	(8ee\L	5	.
*	*	*above	*	*	*
8E\	.	4	8cc\	3	.
8A\	.	.	8b\	.	.
8c\J	.	.	8a\J	.	.
=15	=15	=15	=15	=15	=15
!LO:N:vis=2	!	!	!	!	!
8E\L	2E/	.	8g#X/L	.	.
8d\	.	.	8b/J	.	>
8B\	.	.	8.ee\L	.	.
8d\J	.	.	.	.	.
.	.	.	16g#\Jk)	.	]]
*v	*v	*	*	*	*
=16	=16	=16	=16	=16
8cL 8A|\	.	4.a\	.	.
(8E\	1	.	.	.
8AA|\J)	.	.	.	.
8r	.	8r	.	.
==	==	==	==	==
*-	*-	*-	*-	*-
!!!system-decoration: {p1}
!!!RDF**kern: > = above
!!!RDF**kern: < = below
!!!RDF**kern: | = vertical stroke
!!!ENC: Andrzej Kubiczek
!!!END: 2021-05-02
!!!ENC: Marcin Jachim
!!!END: 2021-04-17
